X:1
T: Le Petre's Hornpipe
C:
R:Reel
Q: 232
K:D
M:4/4
L:1/8
|:fg|((3aaa) d'2 b2|a2 g2 f2 a2|g2 e2 B2 c2|d4 e2 f2|
((3ggg) B2 g2|((3fff) A2 f2|e2 ^d2 e2 f2|e4 c2 d2|
((3eee) ^d2 e2|c2 e2 a2 c'2|((3eee) ^d2 e2|B2 e2 g2 b2|
e'2 e2 d'2 e2|c'2 e2 b2 e2|c2 e2 c'2 b2|a2 g2 f2 e2|
((3eee) ^d2 e2|c2 e2 a2 c'2|((3eee) ^d2 e2|B2 e2 g2 b2|
e'2 e2 d'2 e2|c'2 e2 b2 e2|c2 e2 c'2 b2|a4 f2 g2|
((3aaa) d'2 b2|a2 g2 f2 a2|g2 e2 B2 c2|d4 e2 f2|
((3ggg) B2 g2|((3fff) A2 f2|e2 ^d2 e2 f2|e6:|
